img/logo__title.svg

<svg width="136" height="24" viewBox="0 0 136 24" fill="none" xmlns="http://www.w3.org/2000/svg">
<path d="M63.8097 20.0222H15.9404L19.753 23.7278L63.8097 20.0222Z" fill="#FF41BE"/>
<path d="M20.3711 5.03316V5.59511C19.4838 5.04428 18.6824 4.72714 17.5947 4.72714C14.2401 4.72714 11.6926 7.69825 11.6926 11.3482C11.6926 14.9981 14.2401 17.9692 17.5947 17.9692C18.6881 17.9692 19.4838 17.652 20.3711 17.1012V17.6632H23.3193V5.03316H20.3711ZM17.5947 14.9257C15.9403 14.9257 14.7324 13.3456 14.7324 11.3426C14.7324 9.34516 15.946 7.75945 17.5947 7.75945C19.2491 7.75945 20.4169 9.34516 20.4169 11.3426C20.4169 13.3456 19.2491 14.9257 17.5947 14.9257Z" fill="#FF41BE"/>
<path d="M43.9909 5.03317V12.4498C43.9909 13.8408 43.0063 15.0148 41.5751 15.0148C40.144 15.0148 39.1594 13.8408 39.1594 12.4498V5.03317H36.2112V12.4498C36.2112 15.4933 38.3522 17.9692 41.4836 17.9692C42.9319 17.9692 43.9909 17.1902 43.9909 17.1902V17.6576H46.9391V5.03317H43.9909Z" fill="#FF41BE"/>
<path d="M71.4633 17.6576V10.241C71.4633 8.84998 72.4479 7.67601 73.8791 7.67601C75.3103 7.67601 76.2949 8.84998 76.2949 10.241V17.6576H79.2431V10.241C79.2431 7.19751 77.1021 4.72159 73.9707 4.72159C72.5224 4.72159 71.4633 5.50053 71.4633 5.50053V5.03316H68.5151V17.6576H71.4633Z" fill="#FF41BE"/>
<path d="M3.19738 17.6576V12.7669H5.37846L9.15671 17.6576H13.0151L8.45258 11.7543C9.87229 10.7639 10.8054 9.15042 10.8054 7.31991C10.8054 4.32098 8.29229 1.884 5.20673 1.884H0.111816V17.6576H3.19738ZM3.19738 4.88293H5.20673C6.59208 4.88293 7.72556 5.97901 7.72556 7.32547C7.72556 8.67749 6.59208 9.77358 5.20673 9.77358H3.19738V4.88293Z" fill="#FF41BE"/>
<path d="M54.8849 14.6698C54.6216 14.8423 54.2838 14.9814 53.9003 14.9814C53.4194 14.9814 52.5092 14.6253 52.5092 13.4346V8.03211H55.028V5.03318H52.5092V1.88959H49.561V5.03318H48.0039V8.03211H49.561V13.4736C49.561 16.2945 51.7478 17.9748 53.9461 17.9748C54.7647 17.9748 55.9039 17.7132 56.8313 17.1791L54.8849 14.6698Z" fill="#FF41BE"/>
<path d="M30.6526 10.9476L35.7075 5.03316H31.5743L28.0365 9.42863V0.843567H25.0024V17.6576H28.0365V12.4721L32.3872 17.6576H36.5204L30.6526 10.9476Z" fill="#FF41BE"/>
<path d="M61.6972 4.71045C58.2853 4.71045 55.8352 7.62592 55.8352 11.3426C55.8352 15.254 58.9093 17.9747 61.9892 17.9747C63.5463 17.9747 65.5384 17.4573 67.21 15.1483L64.6053 13.685C62.5903 16.5726 59.2356 15.1038 58.8464 12.2217H67.336C68.0687 7.69269 65.0518 4.71045 61.6972 4.71045ZM64.2676 9.71237H58.9551C59.5791 6.75796 63.6951 6.59104 64.2676 9.71237Z" fill="#FF41BE"/>
<path d="M102.64 3.84249H104.529V2.61287C104.529 2.27347 104.798 2.07318 105.342 2.00641C105.954 2.01754 106.258 2.22896 106.258 2.64625V3.84249H107.729C108.101 3.95376 108.284 4.25421 108.284 4.73271C108.284 5.31691 108.072 5.60624 107.643 5.60624H106.258V7.06953H108.027C108.382 7.16968 108.565 7.46457 108.565 7.94306C108.565 8.52727 108.353 8.81659 107.924 8.81659H106.275V10.2131H108.25C108.456 10.2242 108.599 10.3355 108.668 10.5525V3.8091H108.198C107.826 3.8091 107.643 3.52535 107.643 2.95227C107.643 2.5461 107.786 2.30129 108.078 2.21227H117.449C117.736 2.25678 117.884 2.51829 117.884 3.00234C117.884 3.54204 117.724 3.8091 117.398 3.8091H113.099V15.1761C113.099 15.5489 112.853 15.7325 112.355 15.7325C111.788 15.7325 111.507 15.5544 111.507 15.1928V13.7462C110.374 14.0745 109.441 14.3081 108.702 14.4528C108.393 14.5307 108.124 14.5696 107.906 14.5696C107.489 14.5474 107.254 14.1746 107.197 13.4569C107.197 13.0618 107.431 12.817 107.906 12.7169C108.17 12.6724 108.427 12.6223 108.668 12.5666V11.554C108.576 11.8211 108.416 11.9602 108.181 11.9602H106.275V14.6531C107.832 15.4932 109.784 15.9717 112.131 16.083C113.528 16.083 115.36 16.0274 117.621 15.9161C117.827 15.9495 117.976 16.0719 118.073 16.2889C118.119 16.4335 118.142 16.6839 118.142 17.0289C118.142 17.4907 117.839 17.7188 117.226 17.7188C115.967 17.741 114.593 17.7522 113.104 17.7522C108.645 17.7299 105.525 16.7395 103.75 14.7866C103.624 15.8104 103.476 16.7674 103.298 17.6687C103.241 17.9525 102.926 18.0916 102.365 18.0916C101.878 18.0804 101.478 17.7577 101.552 17.385C101.999 15.1538 102.273 12.5555 102.399 9.60666C102.537 9.39523 102.829 9.26726 103.264 9.23388C103.796 9.26726 104.06 9.43974 104.06 9.75688C104.037 10.8251 103.991 11.8322 103.922 12.7892C104.128 13.034 104.357 13.2677 104.598 13.4791V8.83328H102.434C102.027 8.83328 101.815 8.5217 101.793 7.89299C101.793 7.45344 101.976 7.18638 102.348 7.08623H104.529V5.62293H102.743C102.348 5.62293 102.136 5.31135 102.102 4.68263C102.102 4.23196 102.285 3.95376 102.64 3.84249ZM111.513 3.8091H110.317V5.44488H111.513V3.8091ZM110.317 7.05841V8.79433H111.513V7.05841H110.317ZM110.317 12.2439C110.666 12.166 111.009 12.0937 111.358 12.0269C111.404 11.9936 111.456 11.9713 111.513 11.9602V10.4134H110.317V12.2439ZM114.627 6.38518C115.057 6.44082 115.268 6.64668 115.268 7.00833C115.314 8.17674 115.469 9.22275 115.738 10.1575C116.133 9.05584 116.362 7.86517 116.43 6.58548C116.43 6.3351 116.327 6.2127 116.121 6.2127H113.923C113.539 6.2127 113.351 5.90112 113.351 5.2724C113.351 4.78835 113.517 4.52684 113.854 4.48233H117.386C117.77 4.48233 117.993 4.73271 118.062 5.23902C118.005 8.10998 117.535 10.5024 116.659 12.4109C116.969 12.9283 117.335 13.3901 117.753 13.7907C118.039 14.08 118.188 14.3805 118.188 14.6809C118.154 15.1316 117.879 15.3541 117.375 15.3541C117.089 15.3541 116.78 15.1872 116.459 14.8478C116.196 14.5919 115.961 14.3193 115.766 14.0411C115.514 14.4138 115.245 14.7532 114.971 15.0704C114.765 15.2373 114.547 15.3208 114.329 15.3208C113.889 15.2985 113.597 15.0147 113.379 14.4973C113.293 14.297 113.431 13.8908 113.568 13.7406C114.015 13.2566 114.41 12.7502 114.747 12.2272C114.158 10.8474 113.814 9.18937 113.706 7.25871C113.706 6.94156 113.82 6.69675 114.055 6.51871C114.215 6.42969 114.41 6.38518 114.627 6.38518Z" fill="#FF41BE"/>
<path d="M122.321 6.94156H133.009C133.782 6.95268 134.205 7.26426 134.274 7.86516V14.0633C134.274 14.7811 133.862 15.1538 133.043 15.1761H131.881C132.087 15.2095 132.305 15.2484 132.522 15.2929C134.068 15.6156 135.012 15.8716 135.344 16.0496C135.705 16.172 135.883 16.4892 135.883 16.9899C135.871 17.3126 135.802 17.5686 135.676 17.7466C135.596 17.9246 135.247 18.0916 135.07 18.0137C133.507 17.3404 131.767 16.9565 129.872 16.8007C129.563 16.7117 129.402 16.3779 129.402 15.8104C129.402 15.5044 129.488 15.2929 129.66 15.1705H125.435C125.607 15.4042 125.693 15.6156 125.693 15.7937C125.693 15.9606 125.595 16.1164 125.401 16.2499C124.164 16.9232 122.67 17.5129 120.913 18.0192C120.73 18.086 120.541 18.1305 120.357 18.1528C119.814 18.1528 119.476 17.7967 119.281 17.0901C119.235 16.9287 119.264 16.4613 119.522 16.4168C120.008 16.3278 121.147 16.0107 122.985 15.4376C123.248 15.3263 123.489 15.2373 123.695 15.1705H122.309C121.525 15.1371 121.119 14.7866 121.096 14.1245V7.89298C121.119 7.26426 121.525 6.94156 122.321 6.94156ZM133.999 6.38517H121.199C120.483 6.26276 120.117 5.85104 120.106 5.15555V3.30278C120.197 2.7297 120.541 2.41813 121.13 2.36249H134.005C134.824 2.44038 135.236 2.82985 135.236 3.52534V5.11104C135.23 5.9178 134.818 6.34066 133.999 6.38517ZM122.115 3.94263C122 3.94263 121.909 3.99827 121.84 4.10954V4.54909C121.874 4.70488 121.966 4.79947 122.115 4.81616H124.422V3.94263H122.115ZM123.031 9.16711H132.333V8.90004C132.322 8.67749 132.202 8.55508 131.967 8.52726H123.237C123.122 8.52726 123.054 8.61072 123.031 8.77764V9.16711ZM123.031 11.3203H132.333V10.6972H123.031V11.3203ZM132.333 13.1564V12.856H123.031V13.3289C123.088 13.5181 123.225 13.6126 123.449 13.6126H131.955C132.207 13.6126 132.333 13.4569 132.333 13.1564ZM126.168 3.94263V4.81616H128.853V3.94263H126.168ZM130.604 3.94263V4.81616H133.152C133.381 4.81616 133.501 4.73826 133.501 4.58247V4.12624C133.467 4.00383 133.369 3.94263 133.209 3.94263H130.604Z" fill="#FF41BE"/>
<path d="M99.8461 16.0663C97.396 15.3208 95.4095 14.4083 93.9097 13.3011H99.766C100.19 13.3011 100.338 12.9005 100.338 12.4832C100.338 12.0659 100.195 11.6653 99.766 11.6653H92.9365V11.0088C92.9365 10.8085 92.8506 10.6638 92.6789 10.5859H93.6693C93.8353 10.5859 93.9727 10.5525 94.0872 10.4969C94.1215 10.6638 94.1673 10.7806 94.2245 10.8585C94.3219 10.9976 94.5737 11.0755 94.7111 11.0588C96.1881 10.903 97.5162 10.7417 98.6955 10.5859C98.7298 10.7417 98.7699 10.9142 98.7699 10.9142C98.85 11.2369 99.1534 11.5039 99.6629 11.3982C100.138 11.2981 100.35 10.8975 100.212 10.4691C100.19 10.4023 99.6171 8.52171 99.4683 8.11554C99.3423 7.78171 99.1477 7.52021 98.6439 7.55916C98.1574 7.59254 97.9055 8.0766 98.0371 8.46607C98.0944 8.63298 98.2318 9.02246 98.3005 9.25057C97.894 9.27283 97.396 9.29509 96.7949 9.31734C97.7681 8.2602 98.7355 6.79691 99.806 4.78835C99.932 4.5491 99.9549 4.12625 99.4797 3.88144C98.8615 3.55873 98.4264 3.88144 98.3176 4.10399C97.957 4.84955 97.562 5.55616 97.1555 6.21826C96.9495 6.01796 96.6804 5.77872 96.3598 5.51165C96.3713 5.50052 96.9094 4.91632 97.2414 4.36549C97.4818 3.98158 97.6708 3.61993 97.7624 3.26941C97.9055 2.72971 97.7624 2.41257 97.396 2.27348C97.0353 2.13438 96.6518 2.17333 96.4285 2.59062C96.0507 3.29723 95.6099 3.9482 95.0947 4.53241L95.0775 4.5491C94.9687 4.49346 94.6768 4.46564 94.4879 4.61587V4.53241C94.4879 3.97046 94.2188 3.6255 93.675 3.6255H92.8277L93.0338 3.00234C93.1025 2.75753 93.051 2.5628 92.8335 2.36806C92.6159 2.17333 92.198 2.12881 92.0835 2.12881C91.8259 2.12881 91.6084 2.26235 91.5397 2.46821L91.1161 3.63106H90.5264C90.1085 3.63106 89.8567 3.83136 89.7593 4.17632C89.6964 4.02053 89.5762 3.89813 89.227 3.81467C88.8778 3.73121 88.5114 3.78685 88.3797 4.03722C88.248 4.2876 87.4352 5.83436 87.2691 6.05691C87.1661 5.94007 86.8856 5.64518 86.6108 5.40037C86.8169 5.2112 87.063 4.8718 87.3378 4.38775C87.5897 4.00384 87.7672 3.64219 87.8588 3.29167C87.8931 3.12475 87.9103 2.9634 87.9103 2.81874C87.8874 2.57393 87.75 2.38475 87.4924 2.29573C86.96 2.10656 86.6623 2.29573 86.5249 2.58505C86.2158 3.24159 85.8323 3.8258 85.3743 4.3488C85.2827 4.29316 85.1968 4.24865 85.1167 4.23196C84.8648 4.17076 84.5328 4.39888 84.321 4.64925C84.0977 4.91632 84.029 5.28353 84.1149 5.41706C84.195 5.53947 84.5957 5.84548 84.9621 6.14593C85.443 6.5354 86.0154 7.09179 86.3818 7.48126C85.9525 8.10998 85.5174 8.68862 85.0652 9.21719C84.9163 9.22832 84.756 9.23388 84.5786 9.23388C84.1607 9.25614 83.9546 9.42305 83.9546 9.7402C83.9546 10.2354 84.0176 10.5636 84.1435 10.7361C84.2465 10.8697 84.4126 10.9364 84.6473 10.9364C85.9868 10.7918 87.2004 10.6471 88.2881 10.4969C88.3339 10.6638 88.3568 10.7751 88.3854 10.8752C88.4656 11.1979 88.7518 11.465 89.267 11.3593C89.7422 11.2591 89.9712 10.9086 89.8338 10.4802C89.6792 10.0128 89.1354 8.16562 88.9522 7.87073C88.8262 7.69269 88.5915 7.5981 88.2595 7.58698C88.248 7.58698 88.2251 7.59254 88.1908 7.60367C88.6888 6.88593 89.1983 6.03465 89.7136 5.06098V9.69012C89.7136 10.2521 89.9826 10.597 90.5264 10.597H91.5111C91.3393 10.6749 91.2535 10.814 91.2535 11.0199V11.6764C91.2535 11.6764 84.922 11.6764 84.7045 11.6764C84.2809 11.6764 84.1321 12.077 84.1321 12.4943C84.1321 12.9116 84.2752 13.3122 84.7045 13.3122H90.1429C88.9865 14.2803 87.2348 15.1093 84.5328 16.0274C84.0061 16.2054 83.9889 16.7841 84.1206 17.2681C84.3324 18.0304 84.8419 17.997 85.2426 17.8468C87.7157 16.9287 89.9139 15.7158 91.2535 14.5585V17.4629C91.2535 17.8746 91.6771 18.0471 92.1007 18.0471C92.5301 18.0471 92.948 17.8801 92.948 17.4629V14.5084C93.1311 14.692 94.2474 15.5823 95.1004 16.0552C96.9552 17.0789 98.9531 17.8134 99.1076 17.8579C99.3767 17.9413 99.9434 17.8635 100.172 17.3794C100.338 17.0122 100.447 16.2499 99.8461 16.0663ZM94.4822 6.11811C94.5051 6.14037 95.7874 7.12517 96.2854 7.58141C95.8332 8.23238 95.3752 8.82772 94.9 9.36742H94.6424C94.5966 9.36742 94.5451 9.37298 94.4879 9.38411V6.11811H94.4822ZM86.96 9.16155C87.1661 8.92787 87.3836 8.6608 87.6012 8.37148C87.6126 8.51614 87.7958 8.97238 87.8416 9.12817C87.5897 9.1393 87.2978 9.15042 86.96 9.16155ZM91.1447 5.25571C91.1447 5.05541 91.2535 4.95526 91.471 4.95526H92.7018C92.9193 4.95526 93.0281 5.05541 93.0281 5.25571V6.26834H91.139V5.25571H91.1447ZM91.4767 9.24501C91.2592 9.24501 91.1504 9.14486 91.1504 8.94456V7.61479H93.0395V8.94456C93.0395 9.14486 92.9308 9.24501 92.7132 9.24501H91.4767Z" fill="#FF41BE"/>
</svg>

<svg xmlns="http://www.w3.org/2000/svg" width="136" height="24" fill="#ff41be" xmlns:v="https://vecta.io/nano"><path d="M63.81 20.022H15.94l3.813 3.706 44.057-3.706zM20.371 5.033v.562c-.887-.551-1.689-.868-2.776-.868-3.355 0-5.902 2.971-5.902 6.621s2.547 6.621 5.902 6.621c1.093 0 1.889-.317 2.776-.868v.562h2.948V5.033h-2.948zm-2.776 9.893c-1.654 0-2.862-1.58-2.862-3.583 0-1.997 1.214-3.583 2.862-3.583 1.654 0 2.822 1.586 2.822 3.583 0 2.003-1.168 3.583-2.822 3.583zm26.396-9.893v7.417c0 1.391-.985 2.565-2.416 2.565s-2.416-1.174-2.416-2.565V5.033h-2.948v7.417c0 3.044 2.141 5.519 5.272 5.519 1.448 0 2.507-.779 2.507-.779v.467h2.948V5.033H43.99zm27.472 12.625v-7.417c0-1.391.985-2.565 2.416-2.565s2.416 1.174 2.416 2.565v7.417h2.948v-7.417c0-3.043-2.141-5.519-5.272-5.519-1.448 0-2.507.779-2.507.779v-.467h-2.948v12.624h2.948zm-68.266 0v-4.891h2.181l3.778 4.891h3.858l-4.563-5.903c1.42-.99 2.353-2.604 2.353-4.434 0-2.999-2.513-5.436-5.599-5.436H.112v15.774h3.086zm0-12.775h2.009c1.385 0 2.519 1.096 2.519 2.443 0 1.352-1.133 2.448-2.519 2.448H3.197V4.883zm51.688 9.787c-.263.172-.601.312-.985.312-.481 0-1.391-.356-1.391-1.547V8.032h2.519V5.033h-2.519V1.89h-2.948v3.144h-1.557v2.999h1.557v5.441c0 2.821 2.187 4.501 4.385 4.501.819 0 1.958-.262 2.885-.796l-1.946-2.509zm-24.232-3.722l5.055-5.914h-4.133l-3.538 4.395V.844h-3.034v16.814h3.034v-5.185l4.351 5.185h4.133l-5.868-6.71zM61.697 4.71c-3.412 0-5.862 2.915-5.862 6.632 0 3.911 3.074 6.632 6.154 6.632 1.557 0 3.549-.517 5.221-2.826l-2.605-1.463c-2.015 2.888-5.37 1.419-5.759-1.463h8.49c.733-4.529-2.284-7.511-5.639-7.511zm2.57 5.002h-5.312c.624-2.954 4.74-3.121 5.313 0zm38.373-5.87h1.889v-1.23c0-.339.269-.54.813-.606.612.011.916.223.916.64v1.196h1.471c.372.111.555.412.555.89 0 .584-.212.874-.641.874h-1.385V7.07h1.769c.355.1.538.395.538.874 0 .584-.212.874-.641.874h-1.649v1.397h1.975c.206.011.349.122.418.339V3.809h-.47c-.372 0-.555-.284-.555-.857 0-.406.143-.651.435-.74h9.371c.287.045.435.306.435.79 0 .54-.16.807-.486.807h-4.299v11.367c0 .373-.246.556-.744.556-.567 0-.848-.178-.848-.54v-1.447l-2.805.707a3.36 3.36 0 0 1-.796.117c-.417-.022-.652-.395-.709-1.113 0-.395.234-.64.709-.74l.762-.15v-1.013c-.092.267-.252.406-.487.406h-1.906v2.693c1.557.84 3.509 1.319 5.856 1.43l5.49-.167a.58.58 0 0 1 .452.373c.046.145.069.395.069.74 0 .462-.303.69-.916.69l-4.122.033c-4.459-.022-7.579-1.013-9.354-2.966l-.452 2.882c-.057.284-.372.423-.933.423-.487-.011-.887-.334-.813-.707.447-2.231.721-4.83.847-7.778.138-.211.43-.339.865-.373.532.033.796.206.796.523l-.138 3.032a6.44 6.44 0 0 0 .676.69V8.833h-2.164c-.407 0-.619-.312-.641-.94 0-.44.183-.707.555-.807h2.181V5.623h-1.786c-.395 0-.607-.312-.641-.94 0-.451.183-.729.538-.84zm8.873-.033h-1.196v1.636h1.196V3.809zm-1.196 3.249v1.736h1.196V7.058h-1.196zm0 5.185l1.041-.217a.39.39 0 0 1 .155-.067v-1.547h-1.196v1.831zm4.31-5.859c.43.056.641.261.641.623.046 1.168.201 2.214.47 3.149.395-1.102.624-2.292.692-3.572 0-.25-.103-.373-.309-.373h-2.198c-.384 0-.572-.312-.572-.94 0-.484.166-.746.503-.79h3.532c.384 0 .607.25.676.757-.057 2.871-.527 5.263-1.403 7.172.31.517.676.979 1.094 1.38.286.289.435.59.435.89-.034.451-.309.673-.813.673-.286 0-.595-.167-.916-.506-.263-.256-.498-.528-.693-.807a10.99 10.99 0 0 1-.795 1.029c-.206.167-.424.25-.642.25-.44-.022-.732-.306-.95-.824-.086-.2.052-.606.189-.757.447-.484.842-.99 1.179-1.513-.589-1.38-.933-3.038-1.041-4.968a.87.87 0 0 1 .349-.74 1.17 1.17 0 0 1 .572-.134zm7.694.558h10.688c.773.011 1.196.323 1.265.924v6.198c0 .718-.412 1.091-1.231 1.113h-1.162l.641.117c1.546.323 2.49.579 2.822.757.361.122.539.44.539.94-.012.323-.081.579-.207.757-.08.178-.429.345-.606.267-1.563-.673-3.303-1.057-5.198-1.213-.309-.089-.47-.423-.47-.99 0-.306.086-.518.258-.64h-4.225c.172.234.258.445.258.623 0 .167-.098.323-.292.456-1.237.673-2.731 1.263-4.488 1.769-.183.067-.372.111-.556.134-.543 0-.881-.356-1.076-1.063-.046-.161-.017-.629.241-.673.486-.089 1.625-.406 3.463-.979l.71-.267h-1.386c-.784-.033-1.19-.384-1.213-1.046V7.893c.023-.629.429-.951 1.225-.951zm11.678-.556h-12.8c-.716-.122-1.082-.534-1.093-1.23V3.303c.091-.573.435-.885 1.024-.94h12.875c.819.078 1.231.467 1.231 1.163v1.586c-.006.807-.418 1.23-1.237 1.274zm-11.884-2.443c-.115 0-.206.056-.275.167v.44c.034.156.126.25.275.267h2.307v-.874h-2.307zm.916 5.224h9.302V8.9c-.011-.223-.131-.345-.366-.373h-8.73c-.115 0-.183.083-.206.25v.389zm0 2.153h9.302v-.623h-9.302v.623zm9.302 1.836v-.3h-9.302v.473c.057.189.194.284.418.284h8.506c.252 0 .378-.156.378-.456zm-6.165-9.214v.874h2.685v-.874h-2.685zm4.436 0v.874h2.548c.229 0 .349-.078.349-.234v-.456c-.034-.122-.132-.184-.292-.184h-2.605zM99.846 16.066c-2.45-.745-4.437-1.658-5.936-2.765h5.856c.424 0 .572-.401.572-.818s-.143-.818-.572-.818h-6.83v-.656c0-.2-.086-.345-.258-.423h.99a.94.94 0 0 0 .418-.089c.034.167.08.284.137.362a.61.61 0 0 0 .487.2l3.984-.473.074.328c.08.323.383.59.893.484.475-.1.687-.501.549-.929l-.744-2.354c-.126-.334-.321-.595-.824-.556-.487.033-.738.517-.607.907l.263.784-1.506.067c.973-1.057 1.941-2.52 3.011-4.529.126-.239.149-.662-.326-.907-.618-.323-1.053 0-1.162.223-.361.746-.756 1.452-1.162 2.114l-.796-.707a8.34 8.34 0 0 0 .882-1.146c.24-.384.429-.746.521-1.096.143-.54 0-.857-.366-.996s-.744-.1-.968.317c-.378.707-.819 1.358-1.334 1.942l-.017.017a.63.63 0 0 0-.59.067v-.083c0-.562-.269-.907-.813-.907h-.847l.206-.623c.069-.245.017-.44-.2-.634s-.636-.239-.75-.239c-.258 0-.475.134-.544.339l-.424 1.163h-.59c-.418 0-.67.2-.767.545-.063-.156-.183-.278-.532-.362s-.716-.028-.847.223l-1.111 2.02c-.103-.117-.383-.412-.658-.657.206-.189.452-.529.727-1.013.252-.384.429-.746.521-1.096.034-.167.052-.328.052-.473-.023-.245-.16-.434-.418-.523-.532-.189-.83 0-.968.289-.309.657-.693 1.241-1.151 1.764a.87.87 0 0 0-.258-.117c-.252-.061-.584.167-.796.417-.223.267-.292.634-.206.768.08.122.481.428.847.729a16.14 16.14 0 0 1 1.42 1.335 19.9 19.9 0 0 1-1.317 1.736l-.487.017c-.418.022-.624.189-.624.506 0 .495.063.823.189.996.103.134.269.2.504.2l3.641-.44.097.378c.08.323.366.59.882.484.475-.1.704-.451.567-.879l-.882-2.609c-.126-.178-.361-.273-.693-.284-.011 0-.034.006-.069.017.498-.718 1.008-1.569 1.523-2.543v4.63c0 .562.269.907.813.907h.985c-.172.078-.258.217-.258.423v.656H84.7c-.424 0-.572.401-.572.818s.143.818.572.818h5.438c-1.156.968-2.908 1.797-5.61 2.715-.527.178-.544.757-.412 1.241.212.762.721.729 1.122.579 2.473-.918 4.671-2.131 6.011-3.288v2.904c0 .412.424.584.847.584.429 0 .847-.167.847-.584v-2.955c.183.184 1.299 1.074 2.152 1.547 1.855 1.024 3.853 1.758 4.007 1.803.269.083.836.006 1.064-.479.166-.367.275-1.13-.326-1.313zm-5.364-9.948c.023.022 1.305 1.007 1.803 1.463-.452.651-.91 1.246-1.385 1.786h-.258a.82.82 0 0 0-.154.017V6.118h-.006zM86.96 9.162l.641-.79c.011.145.195.601.24.757l-.882.033zm4.185-3.906c0-.2.109-.3.326-.3h1.231c.218 0 .326.1.326.3v1.013h-1.889V5.256h.006zm.332 3.989c-.217 0-.326-.1-.326-.3v-1.33h1.889v1.33c0 .2-.109.3-.326.3h-1.237z"/></svg>
